X:1958
T:Finbar Dwyer's
O:england
M:C|
L:1/8
C:Finbar Dwyer
S:Augusta Concert Series, 1983
R:reel
K:G
(3def |: gedg (3efe dB | GABc dGBd | gedg edef | (3gag (3fgf efga |
be{f}ed edBA | GABc dGBd | efgb adfa
|1 ~g2gf g2 (3def :|2 ~g2gf g3a |:\
b2eg bage | dB{c}BA Bega | be{f}ed ebef |
gebg adfa | f~g2e dedB |GABc dGBd | efgb adfa
|1 ~g2gf g3a :|2 ~g2gf g3z ||


